X:904
T:Wedding Ring, The
R:Reel
B:The Athole Collection
M:C|
L:1/8
K:G Minor
A|~B2 dc ~B2 dc|~B2 fB AFFA|~B2 df bfdB|AdD^F G2G:|
F|DG^FG BGAF|CF=EF AFFA|DG^FG BGAF|AdD^F G2 G^f|
Dgga bgaf|cffg afcf|dgbg fbdB|AdD^F G2G||

